!!!OTL: Die Linde im Himmelreich
!!!ARE: Europa, Mitteleuropa, Deutschland
!!!SCT: A0582
!!!YEM: Copyright 1995, estate of Helmut Schaffrath.
**kern
*ICvox
*Ivox
*M3/4
*k[]
*C:
{4c
=1
2c
4c
=2
2e
4e
=3
2g
4g
=4
2g}
{4g
=5
2a
4cc
=6
2b
4g
=7
4a
4g
4a
=8
2g}
{4g
=9
2a
4cc
=10
2b
4a
=11
2g
4f
=12
2e}
{4e
=13
2g
4g
=14
2e
4d
=15
2.c
=16
2c}
==
!!!AGN: Romanze, Ballade, Lied, religioeses Lied
!! H. v. Laufenbergs geistl. Lieder Hs.
!!!ONB: ESAC (Essen Associative Code) Database: ALTDEU
!!!AMT: simple triple
!!!AIN: vox
!!!EED: Helmut Schaffrath
!!!EEV: 1.0
*-
